X: 1284
T: A Bit of Blarney
C:J Fred Helf (1870 - 1915)
B: australian traditional tunes wiki
M:4/4
L:1/8
R: Two Step
Q: 1/4=100
K:D
V:1 
f2e2|:"Bm"d2B^AB2BA|B2z2 Bc dB|"F#m"c2FEF4|c2FEF2ed|
"A7"c2A^GA2AG|A2A^G AB ce|"Bm"d2B^AB4|d2B^AB2fe|
d2B^AB2BA|B2B^A Bc dB|"F#m"c2FEF4|c2FEF2cB|
"A7"A3^GA2c2|f2e2A2e2|"D"d8-|d8:|
"D"A2AAA2A2|B2A2F2G2|A8|d8|
"G"d6cd|e2d2B2d2|"D"A8-|A8|
"D"A2AAA2A2|B2A2F2G2|A8|d8|
"E7"f6ef|e2^d2=d2B2|"A7"e6ef|e2d2c2B2|
"D"A2AAA2A2|B2A2F2G2|A8|d8|
"Bm"d6cd|e2d2B2d2|"F#m"f8-|f4f3e|
"G"d2B^AB2BA|B2B^A Bc dB|"F#m"c2FEF4|c2FEF2cB|
"A7"G3^GA2c2|f2e2A2e2|"D"d8-|d4z4||
% abcbook-tune_id 6342d53aea0d2e2aee1423f2


% abcbook-boost 0
% abcbook-tablature 
% abcbook-transpose 
% abcbook-lastupdated 1665324357357
% abcbook-soundfonts 
% abcbook-repeats 1
% NFF Book 2019

